src/assets/flags/vu.svg

<?xml version="1.0" encoding="UTF-8"?>
<svg xmlns="http://www.w3.org/2000/svg" xmlns:xlink="http://www.w3.org/1999/xlink" width="25px" height="px" viewBox="0 0 25 19" version="1.1">
<defs>
<clipPath id="clip1">
  <path d="M 0 0 L 0 19 L 11.667969 11.199219 L 25 11.199219 L 25 7.800781 L 11.667969 7.800781 Z M 0 0 "/>
</clipPath>
</defs>
<g id="surface1">
<rect x="0" y="0" width="25" height="19" style="fill:rgb(0%,58.431375%,26.274511%);fill-opacity:1;stroke:none;"/>
<path style=" stroke:none;fill-rule:nonzero;fill:rgb(82.352942%,6.27451%,20.392157%);fill-opacity:1;" d="M 0 0 L 25 0 L 25 9.5 L 0 9.5 Z M 0 0 "/>
<g clip-path="url(#clip1)" clip-rule="nonzero">
<path style="fill-rule:nonzero;fill:rgb(0%,0%,0%);fill-opacity:1;stroke-width:110;stroke-linecap:butt;stroke-linejoin:miter;stroke:rgb(99.215686%,80.784315%,7.058824%);stroke-opacity:1;stroke-miterlimit:4;" d="M 0 0 L 420.047534 195.018821 L 900.001412 195.018821 L 900.001412 279.979449 L 420.047534 279.979449 L 0 474.998271 " transform="matrix(0.0277777,0,0,0.0400001,0,0)"/>
<path style="fill:none;stroke-width:60;stroke-linecap:butt;stroke-linejoin:miter;stroke:rgb(0%,0%,0%);stroke-opacity:1;stroke-miterlimit:4;" d="M 0 0 L 420.047534 195.018821 L 900.001412 195.018821 M 900.001412 279.979449 L 420.047534 279.979449 L 0 474.998271 " transform="matrix(0.0277777,0,0,0.0400001,0,0)"/>
</g>
<path style=" stroke:none;fill-rule:nonzero;fill:rgb(99.215686%,80.784315%,7.058824%);fill-opacity:1;" d="M 3.359375 11.320312 L 3.359375 12.398438 C 4.289062 12.398438 6.113281 11.679688 6.113281 9.355469 C 6.113281 7.03125 4.164062 6.601562 3.585938 6.601562 C 3.003906 6.601562 1.207031 7.023438 1.207031 8.921875 C 1.207031 10.824219 2.96875 11 3.316406 11 C 3.664062 11 4.96875 10.679688 4.816406 9.257812 C 4.738281 9.976562 4.132812 10.519531 3.417969 10.515625 C 2.472656 10.515625 1.878906 9.804688 1.878906 9.101562 C 1.878906 8.394531 2.457031 7.453125 3.457031 7.453125 C 4.453125 7.453125 5.183594 8.351562 5.183594 9.257812 C 5.183594 10.160156 4.480469 11.316406 3.359375 11.316406 Z M 3.359375 11.320312 "/>
<path style="fill-rule:nonzero;fill:rgb(99.215686%,80.784315%,7.058824%);fill-opacity:1;stroke-width:0.8;stroke-linecap:butt;stroke-linejoin:miter;stroke:rgb(99.215686%,80.784315%,7.058824%);stroke-opacity:1;stroke-miterlimit:4;" d="M 86.192395 247.655348 L 87.577806 248.729563 C 87.577806 248.729563 98.760057 223.241375 128.744323 205.077378 C 124.884962 207.128152 104.895451 217.089053 86.192395 247.655348 Z M 86.192395 247.655348 " transform="matrix(0.0394738,0,0,0.0400001,-0.859375,0)"/>
<path style=" stroke:none;fill-rule:nonzero;fill:rgb(99.215686%,80.784315%,7.058824%);fill-opacity:1;" d="M 2.65625 9.730469 C 2.65625 9.730469 2.523438 9.453125 2.640625 9.324219 C 2.761719 9.195312 2.710938 9.65625 2.710938 9.65625 L 2.761719 9.578125 C 2.761719 9.578125 2.679688 9.234375 2.769531 9.164062 C 2.855469 9.09375 2.816406 9.496094 2.816406 9.496094 L 2.871094 9.425781 C 2.871094 9.425781 2.8125 9.089844 2.898438 9.023438 C 2.984375 8.960938 2.933594 9.34375 2.933594 9.34375 L 2.996094 9.265625 C 2.996094 9.265625 2.949219 8.945312 3.054688 8.867188 C 3.164062 8.792969 3.066406 9.171875 3.066406 9.171875 L 3.140625 9.09375 C 3.140625 9.09375 3.109375 8.800781 3.199219 8.730469 C 3.289062 8.667969 3.214844 9.011719 3.214844 9.011719 L 3.277344 8.941406 C 3.277344 8.941406 3.257812 8.667969 3.34375 8.605469 C 3.429688 8.539062 3.351562 8.863281 3.351562 8.863281 L 3.417969 8.800781 C 3.417969 8.800781 3.402344 8.523438 3.515625 8.472656 C 3.625 8.421875 3.496094 8.726562 3.496094 8.726562 L 3.574219 8.664062 C 3.574219 8.664062 3.59375 8.34375 3.6875 8.316406 C 3.78125 8.285156 3.648438 8.597656 3.648438 8.597656 L 3.714844 8.539062 C 3.714844 8.539062 3.75 8.269531 3.855469 8.234375 C 3.960938 8.199219 3.789062 8.484375 3.789062 8.484375 L 3.859375 8.433594 C 3.859375 8.433594 3.933594 8.160156 4.03125 8.128906 C 4.125 8.101562 3.929688 8.386719 3.929688 8.386719 L 3.996094 8.339844 C 3.996094 8.339844 4.101562 8.09375 4.191406 8.074219 C 4.277344 8.058594 4.089844 8.28125 4.089844 8.28125 L 4.171875 8.230469 C 4.171875 8.230469 4.3125 7.976562 4.363281 8.050781 C 4.414062 8.128906 4.164062 8.246094 4.164062 8.246094 L 4.085938 8.296875 C 4.085938 8.296875 4.382812 8.152344 4.417969 8.222656 C 4.453125 8.296875 4.011719 8.34375 4.011719 8.34375 L 3.941406 8.390625 C 3.941406 8.390625 4.238281 8.3125 4.199219 8.386719 C 4.164062 8.464844 3.871094 8.449219 3.871094 8.449219 L 3.800781 8.496094 C 3.800781 8.496094 4.097656 8.425781 4.058594 8.496094 C 4.019531 8.558594 3.730469 8.554688 3.730469 8.554688 L 3.660156 8.617188 C 3.660156 8.617188 3.949219 8.535156 3.90625 8.628906 C 3.863281 8.71875 3.535156 8.710938 3.535156 8.710938 L 3.457031 8.792969 C 3.457031 8.792969 3.757812 8.683594 3.730469 8.769531 C 3.707031 8.847656 3.359375 8.886719 3.359375 8.886719 L 3.28125 8.96875 C 3.28125 8.96875 3.609375 8.859375 3.511719 8.960938 C 3.414062 9.0625 3.175781 9.089844 3.175781 9.089844 L 3.085938 9.207031 C 3.085938 9.207031 3.40625 9.007812 3.359375 9.121094 C 3.3125 9.230469 2.996094 9.308594 2.996094 9.308594 L 2.933594 9.386719 C 2.933594 9.386719 3.226562 9.214844 3.195312 9.308594 C 3.167969 9.40625 2.855469 9.507812 2.855469 9.507812 L 2.804688 9.578125 C 2.804688 9.578125 3.148438 9.371094 3.121094 9.480469 C 3.089844 9.585938 2.761719 9.660156 2.761719 9.660156 L 2.722656 9.726562 C 2.722656 9.726562 3.035156 9.539062 3.035156 9.632812 C 3.042969 9.71875 2.664062 9.808594 2.664062 9.808594 Z M 2.65625 9.730469 "/>
<path style="fill-rule:nonzero;fill:rgb(99.215686%,80.784315%,7.058824%);fill-opacity:1;stroke-width:0.8;stroke-linecap:butt;stroke-linejoin:miter;stroke:rgb(99.215686%,80.784315%,7.058824%);stroke-opacity:1;stroke-miterlimit:4;" d="M 86.20882 247.655348 L 87.594232 248.729563 C 87.594232 248.729563 98.776483 223.241375 128.661791 205.077378 C 124.901388 207.128152 104.911877 217.089053 86.20882 247.655348 Z M 86.20882 247.655348 " transform="matrix(-0.0394738,0,0,0.0400001,7.824867,0)"/>
<path style=" stroke:none;fill-rule:nonzero;fill:rgb(99.215686%,80.784315%,7.058824%);fill-opacity:1;" d="M 4.308594 9.730469 C 4.308594 9.730469 4.441406 9.453125 4.324219 9.324219 C 4.207031 9.195312 4.257812 9.65625 4.257812 9.65625 L 4.207031 9.578125 C 4.207031 9.578125 4.285156 9.234375 4.195312 9.164062 C 4.109375 9.09375 4.148438 9.496094 4.148438 9.496094 L 4.09375 9.425781 C 4.09375 9.425781 4.152344 9.089844 4.066406 9.023438 C 3.980469 8.960938 4.03125 9.34375 4.03125 9.34375 L 3.96875 9.265625 C 3.96875 9.265625 4.015625 8.945312 3.910156 8.867188 C 3.800781 8.792969 3.898438 9.171875 3.898438 9.171875 L 3.824219 9.09375 C 3.824219 9.09375 3.859375 8.800781 3.765625 8.730469 C 3.675781 8.667969 3.75 9.011719 3.75 9.011719 L 3.6875 8.941406 C 3.6875 8.941406 3.707031 8.667969 3.621094 8.605469 C 3.535156 8.539062 3.613281 8.863281 3.613281 8.863281 L 3.546875 8.800781 C 3.546875 8.800781 3.5625 8.523438 3.449219 8.472656 C 3.339844 8.421875 3.472656 8.726562 3.472656 8.726562 L 3.390625 8.664062 C 3.390625 8.664062 3.371094 8.34375 3.277344 8.316406 C 3.183594 8.285156 3.316406 8.597656 3.316406 8.597656 L 3.25 8.539062 C 3.25 8.539062 3.214844 8.269531 3.113281 8.234375 C 3.003906 8.199219 3.175781 8.484375 3.175781 8.484375 L 3.109375 8.433594 C 3.109375 8.433594 3.03125 8.160156 2.933594 8.128906 C 2.839844 8.101562 3.035156 8.386719 3.035156 8.386719 L 2.96875 8.339844 C 2.96875 8.339844 2.863281 8.09375 2.773438 8.074219 C 2.6875 8.058594 2.875 8.28125 2.875 8.28125 L 2.792969 8.230469 C 2.792969 8.230469 2.652344 7.976562 2.601562 8.050781 C 2.550781 8.128906 2.800781 8.246094 2.800781 8.246094 L 2.878906 8.296875 C 2.878906 8.296875 2.582031 8.152344 2.546875 8.222656 C 2.511719 8.296875 2.953125 8.34375 2.953125 8.34375 L 3.023438 8.390625 C 3.023438 8.390625 2.730469 8.3125 2.765625 8.386719 C 2.800781 8.464844 3.097656 8.449219 3.097656 8.449219 L 3.164062 8.496094 C 3.164062 8.496094 2.867188 8.425781 2.90625 8.496094 C 2.945312 8.558594 3.234375 8.554688 3.234375 8.554688 L 3.304688 8.617188 C 3.304688 8.617188 3.015625 8.535156 3.058594 8.628906 C 3.105469 8.71875 3.429688 8.710938 3.429688 8.710938 L 3.511719 8.792969 C 3.511719 8.792969 3.207031 8.683594 3.234375 8.769531 C 3.257812 8.847656 3.605469 8.886719 3.605469 8.886719 L 3.683594 8.96875 C 3.683594 8.96875 3.355469 8.859375 3.457031 8.960938 C 3.550781 9.0625 3.789062 9.089844 3.789062 9.089844 L 3.882812 9.207031 C 3.882812 9.207031 3.558594 9.007812 3.605469 9.121094 C 3.652344 9.230469 3.96875 9.308594 3.96875 9.308594 L 4.03125 9.386719 C 4.03125 9.386719 3.738281 9.214844 3.769531 9.308594 C 3.796875 9.40625 4.109375 9.507812 4.109375 9.507812 L 4.160156 9.578125 C 4.160156 9.578125 3.816406 9.371094 3.847656 9.480469 C 3.878906 9.585938 4.207031 9.660156 4.207031 9.660156 L 4.246094 9.726562 C 4.246094 9.726562 3.929688 9.539062 3.929688 9.632812 C 3.921875 9.71875 4.300781 9.808594 4.300781 9.808594 Z M 4.308594 9.730469 "/>
</g>
</svg>

<svg xmlns="http://www.w3.org/2000/svg" width="25" height="px" viewBox="0 0 25 19"><defs><clipPath id="a"><path d="M0 0v19l11.668-7.8H25V7.8H11.668Zm0 0"/></clipPath></defs><path d="M0 0h25v19H0z" style="fill:#009543;fill-opacity:1;stroke:none"/><path d="M0 0h25v9.5H0Zm0 0" style="stroke:none;fill-rule:nonzero;fill:#d21034;fill-opacity:1"/><g clip-path="url(#a)"><path d="m0 0 420.048 195.019H900v84.96H420.048L0 475" style="fill-rule:nonzero;fill:#000;fill-opacity:1;stroke-width:110;stroke-linecap:butt;stroke-linejoin:miter;stroke:#fdce12;stroke-opacity:1;stroke-miterlimit:4" transform="scale(.02778 .04)"/><path d="m0 0 420.048 195.019H900m0 84.96H420.048L0 475" style="fill:none;stroke-width:60;stroke-linecap:butt;stroke-linejoin:miter;stroke:#000;stroke-opacity:1;stroke-miterlimit:4" transform="scale(.02778 .04)"/></g><path d="M3.36 11.32v1.078c.93 0 2.753-.718 2.753-3.043 0-2.324-1.949-2.753-2.527-2.753-.582 0-2.379.421-2.379 2.32 0 1.902 1.762 2.078 2.11 2.078s1.652-.32 1.5-1.742a1.405 1.405 0 0 1-1.399 1.258c-.945 0-1.54-.711-1.54-1.414 0-.707.579-1.649 1.579-1.649.996 0 1.727.899 1.727 1.805 0 .902-.704 2.058-1.825 2.058Zm0 0" style="stroke:none;fill-rule:nonzero;fill:#fdce12;fill-opacity:1"/><path d="m86.192 247.655 1.386 1.075s11.182-25.489 41.166-43.653c-3.859 2.051-23.849 12.012-42.552 42.578Zm0 0" style="fill-rule:nonzero;fill:#fdce12;fill-opacity:1;stroke-width:.8;stroke-linecap:butt;stroke-linejoin:miter;stroke:#fdce12;stroke-opacity:1;stroke-miterlimit:4" transform="matrix(.03947 0 0 .04 -.86 0)"/><path d="M2.656 9.73s-.133-.277-.015-.406c.12-.129.07.332.07.332l.05-.078s-.081-.344.009-.414c.085-.07.046.332.046.332l.055-.07s-.058-.336.027-.403c.086-.062.036.32.036.32l.062-.077s-.047-.32.059-.399c.11-.074.011.305.011.305l.075-.078s-.032-.293.058-.364c.09-.062.016.282.016.282l.062-.07s-.02-.274.067-.337c.086-.066.008.258.008.258l.066-.062s-.016-.278.098-.328c.109-.051-.02.254-.02.254l.078-.063s.02-.32.114-.348c.093-.03-.04.282-.04.282l.067-.059s.035-.27.14-.305-.066.25-.066.25l.07-.05s.075-.274.172-.305c.094-.027-.101.258-.101.258l.066-.047s.106-.246.195-.266c.086-.015-.101.207-.101.207l.082-.05s.14-.254.191-.18c.051.078-.199.195-.199.195l-.078.05s.297-.144.332-.073c.035.074-.406.12-.406.12l-.07.048s.296-.079.257-.004c-.035.078-.328.062-.328.062l-.07.047s.297-.07.258 0c-.04.063-.329.059-.329.059l-.07.062s.29-.082.246.012c-.043.09-.37.082-.37.082l-.079.082s.3-.11.273-.023c-.023.078-.37.117-.37.117l-.079.082s.328-.11.23-.008c-.097.101-.335.129-.335.129l-.09.117s.32-.2.273-.086c-.046.11-.363.188-.363.188l-.062.078s.293-.172.261-.078c-.027.097-.34.199-.34.199l-.05.07s.343-.207.316-.098c-.031.106-.36.18-.36.18l-.038.067s.312-.188.312-.094c.008.086-.37.176-.37.176Zm0 0" style="stroke:none;fill-rule:nonzero;fill:#fdce12;fill-opacity:1"/><path d="m86.209 247.655 1.385 1.075s11.182-25.489 41.068-43.653c-3.76 2.051-23.75 12.012-42.453 42.578Zm0 0" style="fill-rule:nonzero;fill:#fdce12;fill-opacity:1;stroke-width:.8;stroke-linecap:butt;stroke-linejoin:miter;stroke:#fdce12;stroke-opacity:1;stroke-miterlimit:4" transform="matrix(-.03947 0 0 .04 7.825 0)"/><path d="M4.309 9.73s.132-.277.015-.406-.066.332-.066.332l-.051-.078s.078-.344-.012-.414c-.086-.07-.047.332-.047.332l-.054-.07s.058-.336-.028-.403c-.086-.062-.035.32-.035.32l-.062-.077s.047-.32-.059-.399c-.11-.074-.012.305-.012.305l-.074-.078s.035-.293-.058-.364c-.09-.062-.016.282-.016.282l-.062-.07s.019-.274-.067-.337c-.086-.066-.008.258-.008.258l-.066-.062s.015-.278-.098-.328c-.11-.051.024.254.024.254l-.082-.063s-.02-.32-.114-.348c-.093-.03.04.282.04.282l-.067-.059s-.035-.27-.137-.305c-.11-.035.063.25.063.25l-.067-.05s-.078-.274-.175-.305c-.094-.027.101.258.101.258L2.97 8.34s-.106-.246-.196-.266c-.086-.015.102.207.102.207l-.082-.05s-.14-.254-.191-.18c-.051.078.199.195.199.195l.078.05s-.297-.144-.332-.073c-.035.074.406.12.406.12l.07.048s-.293-.079-.257-.004c.035.078.332.062.332.062l.066.047s-.297-.07-.258 0c.04.063.328.059.328.059l.07.062s-.288-.082-.245.012c.046.09.37.082.37.082l.083.082s-.305-.11-.278-.023c.024.078.371.117.371.117l.079.082s-.329-.11-.227-.008c.094.101.332.129.332.129l.094.117s-.324-.2-.278-.086c.047.11.364.188.364.188l.062.078s-.293-.172-.261-.078c.027.097.34.199.34.199l.05.07s-.344-.207-.312-.098c.03.106.359.18.359.18l.04.067s-.317-.188-.317-.094c-.008.086.37.176.37.176Zm0 0" style="stroke:none;fill-rule:nonzero;fill:#fdce12;fill-opacity:1"/></svg>
